Hatter-kde/actions/16/grid-axonometric.svg

<svg xmlns="http://www.w3.org/2000/svg" viewBox="0 0 16 16">
  <defs id="defs3051">
    <style type="text/css" id="current-color-scheme">
      .ColorScheme-Text {
        color:#363636;
      }
      </style>
  </defs>
 <path style="fill:currentColor;fill-opacity:1;stroke:none" 
       d="M 3 2 L 3 4.5546875 L 2.1230469 4.9453125 L 2 4.890625 L 2 5 L 2 5.9824219 L 2 6.09375 L 2.1269531 6.0371094 L 3 6.4199219 L 3 9.703125 L 2.265625 10.023438 L 2.203125 9.9960938 L 2 9.90625 L 2 11 L 2 11.232422 L 2.2636719 11.117188 L 3 11.445312 L 3 14 L 4 14 L 4 11.888672 L 6 12.777344 L 6 13.460938 L 4.796875 13.996094 L 4.7890625 14 L 7.25 14 L 8 13.666016 L 8.75 14 L 11.210938 14 L 11.203125 13.996094 L 10 13.460938 L 10 12.777344 L 12 11.888672 L 12 14 L 13 14 L 13 11.445312 L 13.736328 11.117188 L 14 11.232422 L 14 11 L 14 10.140625 L 14 9.90625 L 13.796875 9.9960938 L 13.734375 10.023438 L 13 9.703125 L 13 6.4199219 L 13.873047 6.0371094 L 14 6.09375 L 14 5.9824219 L 14 4.890625 L 13.876953 4.9453125 L 13 4.5546875 L 13 2 L 12 2 L 12 4.1113281 L 10 3.2226562 L 10 2.5390625 L 11.203125 2.0039062 L 11.210938 2 L 8.75 2 L 8 2.3339844 L 7.25 2 L 4.7890625 2 L 4.796875 2.0039062 L 6 2.5390625 L 6 3.2226562 L 4 4.1113281 L 4 2 L 3 2 z M 8 3.4277344 L 9 3.8710938 L 9 7.078125 L 8 7.515625 L 7 7.078125 L 7 3.8710938 L 8 3.4277344 z M 6 4.3164062 L 6 6.640625 L 4 5.765625 L 4 5.2050781 L 6 4.3164062 z M 10 4.3164062 L 12 5.2050781 L 12 5.765625 L 10 6.640625 L 10 4.3164062 z M 4 6.8574219 L 6 7.7324219 L 6 8.390625 L 4 9.265625 L 4 6.8574219 z M 12 6.8574219 L 12 9.265625 L 10 8.390625 L 10 7.7324219 L 12 6.8574219 z M 8 8.6074219 L 9 9.0449219 L 9 12.128906 L 8 12.572266 L 7 12.128906 L 7 9.0449219 L 8 8.6074219 z M 6 9.4824219 L 6 11.683594 L 4 10.794922 L 4 10.357422 L 6 9.4824219 z M 10 9.4824219 L 12 10.357422 L 12 10.794922 L 10 11.683594 L 10 9.4824219 z "
     class="ColorScheme-Text"
     />
</svg>

<?xml version="1.0" encoding="UTF-8"?>
<svg viewBox="0 0 16 16" xmlns="http://www.w3.org/2000/svg">
 <defs id="defs3051">
  <style id="current-color-scheme" type="text/css">.ColorScheme-Text {
        color:#363636;
      }</style>
 </defs>
 <path class="ColorScheme-Text" d="m3 2v2.5547l-0.87695 0.39062-0.12305-0.054688v0.10938 0.98242 0.11133l0.12695-0.056641 0.87305 0.38281v3.2832l-0.73438 0.32031-0.0625-0.027344-0.20312-0.089844v1.0938 0.23242l0.26367-0.11523 0.73633 0.32812v2.5547h1v-2.1113l2 0.88867v0.68359l-1.2031 0.53516-0.0078125 0.003906h2.4609l0.75-0.33398 0.75 0.33398h2.4609l-0.007813-0.003906-1.2031-0.53516v-0.68359l2-0.88867v2.1113h1v-2.5547l0.73633-0.32812 0.26367 0.11523v-0.23242-0.85938-0.23438l-0.20312 0.089844-0.0625 0.027344-0.73438-0.32031v-3.2832l0.87305-0.38281 0.12695 0.056641v-0.11133-1.0918l-0.12305 0.054688-0.87695-0.39062v-2.5547h-1v2.1113l-2-0.88867v-0.68359l1.2031-0.53516 0.007813-0.0039062h-2.4609l-0.75 0.33398-0.75-0.33398h-2.4609l0.0078125 0.0039062 1.2031 0.53516v0.68359l-2 0.88867v-2.1113h-1zm5 1.4277 1 0.44336v3.207l-1 0.4375-1-0.4375v-3.207l1-0.44336zm-2 0.88867v2.3242l-2-0.875v-0.56055l2-0.88867zm4 0 2 0.88867v0.56055l-2 0.875v-2.3242zm-6 2.541 2 0.875v0.6582l-2 0.875v-2.4082zm8 0v2.4082l-2-0.875v-0.6582l2-0.875zm-4 1.75 1 0.4375v3.084l-1 0.44336-1-0.44336v-3.084l1-0.4375zm-2 0.875v2.2012l-2-0.88867v-0.4375l2-0.875zm4 0 2 0.875v0.4375l-2 0.88867v-2.2012z" fill="currentColor"/>
</svg>
